!!!COM: Palestrina, Giovanni Perluigi da
!!!OPR: In te Domine speravi (1599)
!!!OTL: Sanctus
**kern	**kern	**kern	**kern	**kern	**kern
*Ibass	*Itenor	*Itenor	*Icalto	*Icant	*Icant
!Bassus	!Tenor 2	!Tenor 1	!Altus	!Cantus 2	!Cantus 1
*clefF4	*clefGv2	*clefGv2	*clefG2	*clefG2	*clefG2
*k[]	*k[]	*k[]	*k[]	*k[]	*k[]
*C:ion	*C:ion	*C:ion	*C:ion	*C:ion	*C:ion
*M4/2	*M4/2	*M4/2	*M4/2	*M4/2	*M4/2
=1	=1	=1	=1	=1	=1
0r	0r	0r	0r	1cc	0r
.	.	.	.	2cc	.
.	.	.	.	[2cc	.
=2	=2	=2	=2	=2	=2
0r	0r	0r	2.c	2cc]	0r
.	.	.	.	2cc	.
.	.	.	4d	.	.
.	.	.	2e	2b	.
.	.	.	2f	2a	.
=3	=3	=3	=3	=3	=3
0r	1r	0r	2e	1cc	1r
.	.	.	2c	.	.
.	2.c	.	2.e	1g	1cc
.	4d	.	4f	.	.
=4	=4	=4	=4	=4	=4
0r	2e	0r	2g	2r	2cc
.	2f	.	2a	4cc	1cc
.	.	.	.	4dd	.
.	2e	.	2g	4ee	.
.	.	.	.	4ff	.
.	2c	.	2e	[2gg	2cc
=5	=5	=5	=5	=5	=5
0r	2e	0r	2g	2gg]	2b
.	2f	.	2.a	2ff	2a
.	1c	.	.	1ee	2.cc
.	.	.	4g	.	.
.	.	.	[2g	.	.
.	.	.	.	.	4b
=6	=6	=6	=6	=6	=6
1r	1d	1r	2g]	2dd	1a
.	.	.	2f#	4a	.
.	.	.	.	4b	.
2.C	2.e	1c	1g	4cc	1g
.	.	.	.	4dd	.
.	.	.	.	[2ee	.
4D	4f	.	.	.	.
=7	=7	=7	=7	=7	=7
2E	2g	2c	1r	2ee]	2r
2F	2a	1c	.	4a	4cc
.	.	.	.	4b	4dd
2E	1g	.	2.e	4cc	4ee
.	.	.	.	4dd	4ff
2C	.	2c	.	[2ee	[2gg
.	.	.	4f	.	.
=8	=8	=8	=8	=8	=8
2E	2r	2B	2g	2ee]	2gg]
2F	2.c	2A	2a	2cc	2ff
2C	.	1c	2g	1cc	1ee
.	4d	.	.	.	.
[2c	4e	.	2c	.	.
.	4f	.	.	.	.
=9	=9	=9	=9	=9	=9
2c]	0g	1G	1d	0r	1dd
2B	.	.	.	.	.
2c	.	1r	1e	.	2.cc
[2C	.	.	.	.	.
.	.	.	.	.	4dd
=10	=10	=10	=10	=10	=10
2C]	1g	2.c	2.e	1cc	1ee
1c	.	.	.	.	.
.	.	4d	4f	.	.
.	1r	2e	2g	2cc	2r
2F	.	2f	2a	[2cc	4cc
.	.	.	.	.	4dd
=11	=11	=11	=11	=11	=11
1E	2.c	2.e	1g	2cc]	4ee
.	.	.	.	.	4ff
.	.	.	.	2cc	1gg
.	4d	4f	.	.	.
1r	2e	2g	1r	2b	.
.	2f	2a	.	2a	2cc
=12	=12	=12	=12	=12	=12
1c	2e	1g	0r	1cc	2.ee
.	2c	.	.	.	.
.	.	.	.	.	4ff
2c	2.e	2r	.	1g	1gg
[2c	.	4c	.	.	.
.	4f	4d	.	.	.
=13	=13	=13	=13	=13	=13
2c]	1.g	4e	2.e	2r	1ee
.	.	4f	.	.	.
2c	.	2g	.	2g	.
.	.	.	4f	.	.
2B	.	2G	2g	2b	2r
2A	2f	[2c	2a	[2cc	2cc
=14	=14	=14	=14	=14	=14
1c	1e	4c]	1g	4cc]	2ee
.	.	4d	.	4b	.
.	.	4e	.	4g	2.gg
.	.	4f	.	4a	.
1G	1d	1g	2r	4b	.
.	.	.	.	2cc	4ff
.	.	.	[2g	.	2dd
.	.	.	.	4b	.
=15	=15	=15	=15	=15	=15
1C	1c	2.e	4g]	[0cc	1ee
.	.	.	4g	.	.
.	.	.	2g	.	.
.	.	8f	.	.	.
.	.	8g	.	.	.
2r	1r	2a	2f	.	2r
[2c	.	2e	2g	.	[2ee
=16	=16	=16	=16	=16	=16
4c]	2r	1g	2.e	1cc]	4ee]
4c	.	.	.	.	4ee
2c	2.g	.	.	.	2ee
.	.	.	4f	.	.
2B	.	1r	2g	1r	2dd
.	4g	.	.	.	.
2c	2g	.	2e	.	[2cc
=17	=17	=17	=17	=17	=17
2A	2f	0r	2c	1r	2cc]
2B	2g	.	2d	.	4b
.	.	.	.	.	4a
[1c	2.e	.	2e	2r	1g
.	.	.	2c	[2cc	.
.	4f	.	.	.	.
=18	=18	=18	=18	=18	=18
1c]	2g	2r	2.e	4cc]	0r
.	.	.	.	4cc	.
.	2.e	2.g	.	2cc	.
.	.	.	4f	.	.
1r	.	.	2g	2b	.
.	4e	4g	.	.	.
.	2c	2g	2e	2cc	.
=19	=19	=19	=19	=19	=19
0r	2d	2f#	1d	2a	1r
.	2G	2g	.	2b	.
.	2A	2e	1c	2.cc	2r
.	2F	2f	.	.	[2cc
.	.	.	.	4dd	.
=20	=20	=20	=20	=20	=20
0r	2.c	2g	0r	4ee	4cc]
.	.	.	.	4ff	4cc
.	.	1e	.	2.gg	2cc
.	4d	.	.	.	.
.	4e	.	.	.	2b
.	4f	.	.	4ff	.
.	[2g	2c	.	2ee	2cc
=21	=21	=21	=21	=21	=21
1r	2g]	1d	2r	[0dd	2a
.	2f#	.	2.d	.	2a
2r	1g	4G	.	.	2b
.	.	4A	4d	.	.
[2G	.	4B	2d	.	[2b
.	.	4c	.	.	.
=22	=22	=22	=22	=22	=22
4G]	2r	1d	1g	1dd]	4b]
4G	.	.	.	.	4b
2G	2.d	.	.	.	2b
2F#	.	2r	2a	1r	2a
.	4d	.	.	.	.
2G	2d	[2G	[2g	.	2b
=23	=23	=23	=23	=23	=23
2E	2c	4G]	2g]	1r	2cc
.	.	4G	.	.	.
2F	2d	2A	2f	.	2a
2.G	2.B	2B	2e	2r	1g
.	.	2G	[2d	[2gg	.
4F	4A	.	.	.	.
=24	=24	=24	=24	=24	=24
1E	1G	2B	2d]	4gg]	0r
.	.	.	.	4gg	.
.	.	2c	1c	2gg	.
2D	2A	1d	.	2ff#	.
2G	2B	.	2B	2gg	.
=25	=25	=25	=25	=25	=25
0C	1G	2.e	2c	2.ee	1r
.	.	.	2.cc	.	.
.	.	4d	.	4ff	.
.	1r	4c	.	2gg	2r
.	.	4d	4cc	.	.
.	.	4e	2cc	2ee	[2gg
.	.	4f	.	.	.
=26	=26	=26	=26	=26	=26
0r	0r	2g	2b	2dd	4gg]
.	.	.	.	.	4gg
.	.	2c	2cc	2ee	2gg
.	.	1r	2a	2cc	2ff#
.	.	.	2b	2dd	2gg
=27	=27	=27	=27	=27	=27
0r	1r	0r	2cc	2ee	2ee
.	.	.	4b	4dd	2ff#
.	.	.	4a	4cc	.
.	2r	.	4g	2b	2.gg
.	.	.	4f	.	.
.	[2g	.	4e	[2ee	.
.	.	.	4d	.	4ff
=28	=28	=28	=28	=28	=28
0r	4g]	0r	1c	4ee]	2.ee
.	4g	.	.	4dd	.
.	2g	.	.	1cc	.
.	.	.	.	.	8dd
.	.	.	.	.	8cc
.	2f	.	2r	.	1dd
.	2g	.	[2g	2b	.
=29	=29	=29	=29	=29	=29
2r	2e	1r	4g]	[0cc	2cc
.	.	.	4g	.	.
2.F	2f	.	2a	.	2.a
.	2.c	2r	1f	.	.
4F	.	.	.	.	4a
2F	.	[2c	.	.	2a
.	4d	.	.	.	.
=30	=30	=30	=30	=30	=30
2E	2e	4c]	2g	1cc]	2g
.	.	4c	.	.	.
2F	2A	2c	1a	.	2f
2D	2d	2B	.	2r	2ff
2E	2G	2c	2g	[2cc	4ee
.	.	.	.	.	4dd
=31	=31	=31	=31	=31	=31
1F	2c	1A	1a	4cc]	2cc
.	.	.	.	4cc	.
.	2A	.	.	2cc	4ff
.	.	.	.	.	4ee
[1G	2d	2.B	2r	2b	4dd
.	.	.	.	.	4cc
.	2d	.	[2g	2g	[2dd
.	.	4c	.	.	.
=32	=32	=32	=32	=32	=32
2G]	1G	2d	2g]	2b	2dd]
2C	.	2e	2g	2cc	1cc
1G	2r	1d	2.g	1dd	.
.	2g	.	.	.	2b
.	.	.	4f	.	.
=33	=33	=33	=33	=33	=33
[0C	2g	[0c	4e	[0ee	[0cc
.	.	.	4d	.	.
.	2.g	.	4c	.	.
.	.	.	4d	.	.
.	.	.	2.e	.	.
.	4f	.	.	.	.
.	4e	.	.	.	.
.	4d	.	4f	.	.
=34	=34	=34	=34	=34	=34
0C]	0e	0c]	0g	0ee]	0cc]
*	*	*	*	*-	*-
!! Pleni
*Ibass	*Itenor	*Itenor	*Icalto
!Bassus	!Tenor 2	!Tenor 1	!Altus
*clefF4	*clefGv2	*clefGv2	*clefG2
*k[]	*k[]	*k[]	*k[]
*C:ion	*C:ion	*C:ion	*C:ion
*M4/2	*M4/2	*M4/2	*M4/2
=35	=35	=35	=35
0r	1d	0r	0r
.	2d	.	.
.	2d	.	.
=36	=36	=36	=36
1G	2e	0r	0r
.	2d	.	.
2G	4B	.	.
.	4c	.	.
2G	4d	.	.
.	4B	.	.
=37	=37	=37	=37
2A	2c	0r	0r
2G	2d	.	.
4E	4G	.	.
4F	4A	.	.
4G	4B	.	.
4E	4c	.	.
=38	=38	=38	=38
2F	2d	0r	1r
2G	2B	.	.
4C	1e	.	1g
4D	.	.	.
4E	.	.	.
4F	.	.	.
=39	=39	=39	=39
2G	2d	1r	2g
2E	1c	.	2g
2F	.	2r	2a
2G	2B	2g	2g
=40	=40	=40	=40
1C	1c	2g	4e
.	.	.	4f
.	.	2g	4g
.	.	.	4e
1r	2r	2a	2f
.	2g	2g	2g
=41	=41	=41	=41
0r	2g	4e	2c
.	.	4f	.
.	2g	4g	2e
.	.	4e	.
.	2a	2f	2d
.	2g	2g	2e
=42	=42	=42	=42
0r	4e	2c	1g
.	4f	.	.
.	4g	2e	.
.	4e	.	.
.	2f	2d	2a
.	2g	2G	2b
=43	=43	=43	=43
0r	4c	4A	1cc
.	4d	4B	.
.	4e	4c	.
.	4f	4d	.
.	2g	4e	2.b
.	.	4f	.
.	2e	[2g	.
.	.	.	8a
.	.	.	8g
=44	=44	=44	=44
1r	1d	2g]	1a
.	.	2f#	.
2r	2.e	1g	1g
2c	.	.	.
.	4f	.	.
=45	=45	=45	=45
2c	1g	0r	1e
2c	.	.	.
2d	1r	.	2f
2c	.	.	2g
=46	=46	=46	=46
4A	0r	1c	1a
4B	.	.	.
4c	.	.	.
4A	.	.	.
2B	.	2d	1g
2c	.	2e	.
=47	=47	=47	=47
4F	1r	1f	2a
4G	.	.	.
4A	.	.	4cc
4B	.	.	4b
1c	2r	[1e	4a
.	.	.	4g
.	2c	.	[2g
=48	=48	=48	=48
1A	2c	2e]	2g]
.	2c	4d	2f#
.	.	4c	.
2G	2d	2B	1g
2E	2c	2e	.
=49	=49	=49	=49
1F	4A	2.c	1.a
.	4B	.	.
.	4c	.	.
.	4A	4d	.
1E	2B	1e	.
.	2c	.	2g
=50	=50	=50	=50
1F	2d	1a	2f
.	1c	.	2e
1G	.	1g	1d
.	2B	.	.
=51	=51	=51	=51
0C	1c	0e	1g
.	2.c	.	2r
.	.	.	[2g
.	4d	.	.
=52	=52	=52	=52
1r	2e	0r	4g]
.	.	.	4a
.	2d	.	2b
2r	2.c	.	2a
4C	.	.	[2g
4D	4B	.	.
=53	=53	=53	=53
4E	4G	0r	4g]
4F	4A	.	4f
2G	2B	.	2d
2E	2c	.	2e
2D	2d	.	2f
=54	=54	=54	=54
1C	2.e	2r	0g
.	.	2.c	.
.	4d	.	.
1C	4e	.	.
.	4f	4d	.
.	2g	2e	.
=55	=55	=55	=55
0r	2f	2d	1a
.	2.e	2.c	.
.	.	.	[1g
.	4d	4B	.
.	2B	2G	.
=56	=56	=56	=56
0r	2c	2A	2g]
.	2.d	2B	2f
.	.	1c	1e
.	4c	.	.
.	[2c	.	.
=57	=57	=57	=57
2r	2c]	1G	1d
2.G	4B	.	.
.	4A	.	.
.	2B	2.d	2r
4A	.	.	.
2B-	2G	.	2g
.	.	4e	.
=58	=58	=58	=58
2A	2r	2f	2a
2.G	2.d	2g	2.b-
.	.	2.d	.
4F	4e	.	4a
2D	2f	.	2f
.	.	4c	.
=59	=59	=59	=59
2E	2e	2B	2g
2F	2.d	2A	2a
2G	.	2B	2g
.	4c	.	.
2F	2A	[2c	[2a
=60	=60	=60	=60
1E	2B	4c]	4a]
.	.	4B	4g
.	2c	2G	1g
1D	1d	1A	.
.	.	.	2f#
=61	=61	=61	=61
0r	2G	2B	[0g
.	2.c	2.e	.
.	4d	4d	.
.	[2e	[2c	.
=62	=62	=62	=62
2r	2e]	2c]	1g]
2.G	4d	4B	.
.	4c	4A	.
.	2.d	2B	2r
4A	.	.	.
2B-	.	2G	2g
.	4e	.	.
=63	=63	=63	=63
2A	2f	2r	2a
2.G	2g	2.d	2.b-
.	2.d	.	.
4F	.	4e	4a
2D	.	2f	2f
.	4c	.	.
=64	=64	=64	=64
2E	2B	2e	2g
2F	2A	2.d	2a
2G	2B	.	2g
.	.	4c	.
2F	[2c	2A	[2a
=65	=65	=65	=65
1E	4c]	2B	4a]
.	4B	.	4g
.	2G	2c	1g
1D	1A	1d	.
.	.	.	2f#
=66	=66	=66	=66
0G	0B	0d	0g
*-	*-	*-	*-
!! Hosanna
**kern	**kern	**kern	**kern	**kern	**kern
*Ibass	*Itenor	*Itenor	*Icalto	*Icant	*Icant
!Bassus	!Tenor 2	!Tenor 1	!Altus	!Cantus 2	!Cantus 1
*clefF4	*clefGv2	*clefGv2	*clefG2	*clefG2	*clefG2
*k[]	*k[]	*k[]	*k[]	*k[]	*k[]
*C:ion	*C:ion	*C:ion	*C:ion	*C:ion	*C:ion
*M4/2	*M4/2	*M4/2	*M4/2	*M4/2	*M4/2
=67	=67	=67	=67	=67	=67
0r	0r	0r	1f	1r	0r
.	.	.	2a	1cc	.
.	.	.	2a	.	.
=68	=68	=68	=68	=68	=68
0r	0r	0r	2g	2ee	0r
.	.	.	2e	2ee	.
.	.	.	1f	2dd	.
.	.	.	.	2a	.
=69	=69	=69	=69	=69	=69
0r	1c	0r	2e	1cc	0r
.	.	.	2.a	.	.
.	2e	.	.	2.b	.
.	.	.	4g	.	.
.	2e	.	[2g	.	.
.	.	.	.	8a	.
.	.	.	.	8g	.
=70	=70	=70	=70	=70	=70
0r	2d	0r	4g]	1a	2r
.	.	.	4f	.	.
.	2A	.	2f	.	2cc
.	1c	.	2e	2g	2ee
.	.	.	2c	[2a	2ee
=71	=71	=71	=71	=71	=71
0r	2.B	1r	1d	4a]	2dd
.	.	.	.	4g	.
.	.	.	.	1g	2b
.	8A	.	.	.	.
.	8G	.	.	.	.
.	1A	1c	1r	.	1cc
.	.	.	.	2f#	.
=72	=72	=72	=72	=72	=72
0r	1G	2e	2r	4g	2.b
.	.	.	.	4a	.
.	.	2e	2g	4b	.
.	.	.	.	4cc	8a
.	.	.	.	.	8g
.	1r	2d	2f	2dd	1a
.	.	2A	2e	2cc	.
=73	=73	=73	=73	=73	=73
1C	0r	1c	2.e	1.ee	2g
.	.	.	.	.	2.a
.	.	.	4f	.	.
2E	.	2.B	2g	.	.
.	.	.	.	.	4g
2E	.	.	2G	2b	[2g
.	.	8A	.	.	.
.	.	8G	.	.	.
=74	=74	=74	=74	=74	=74
2D	1r	1A	0d	0dd	2g]
2D	.	.	.	.	2f#
1G	2r	2G	.	.	1g
.	2d	[2g	.	.	.
=75	=75	=75	=75	=75	=75
1C	2e	2g]	1c	0r	2r
.	2e	2e	.	.	2g
2r	2d	1f	1r	.	2a
2F	2A	.	.	.	[2a
=76	=76	=76	=76	=76	=76
2A	1c	2e	1r	0r	4a]
.	.	.	.	.	4g
2A	.	2c	.	.	4e
.	.	.	.	.	4f
2G	2B	1d	2r	.	2g
2D	[2A	.	2f	.	[2a
=77	=77	=77	=77	=77	=77
1F	2A]	2c	2a	0r	4a]
.	.	.	.	.	4b
.	2F	2A	2a	.	4cc
.	.	.	.	.	4dd
2E	2G	2B	2g	.	2ee
2C	2A	[2c	2e	.	2ee
=78	=78	=78	=78	=78	=78
1D	1F	2c]	1f	1r	1dd
.	.	2B	.	.	.
1C	1G	2c	2.e	2r	1g
.	.	[2e	.	2cc	.
.	.	.	4f	.	.
=79	=79	=79	=79	=79	=79
0r	0r	4e]	2g	2ee	0r
.	.	4d	.	.	.
.	.	2c	2.a	2ee	.
.	.	2B	.	2dd	.
.	.	.	4g	.	.
.	.	2G	[2g	2b	.
=80	=80	=80	=80	=80	=80
1r	1c	1A	2g]	0cc	0r
.	.	.	2f#	.	.
1C	2e	1G	2g	.	.
.	2e	.	4G	.	.
.	.	.	4A	.	.
=81	=81	=81	=81	=81	=81
2G	2d	1r	4B	2.b	0r
.	.	.	4c	.	.
2G	2B	.	4d	.	.
.	.	.	4e	8a	.
.	.	.	.	8g	.
2F	2c	2r	1f	1a	.
2D	[2d	2f	.	.	.
=82	=82	=82	=82	=82	=82
1F	4d]	2a	2f	0r	2r
.	4c	.	.	.	.
.	2A	2a	2c	.	2cc
2E	2B	2g	2r	.	2ee
2C	2c	2e	2e	.	2ee
=83	=83	=83	=83	=83	=83
4D	0A	1f	1a	0r	2dd
4E	.	.	.	.	.
4F	.	.	.	.	2a
4G	.	.	.	.	.
4A	.	2.e	1a	.	4cc
4B	.	.	.	.	4dd
[2c	.	.	.	.	4ee
.	.	8d	.	.	4ff
.	.	8c	.	.	.
=84	=84	=84	=84	=84	=84
2c]	1G	1d	2r	1dd	1gg
2B	.	.	2d	.	.
2c	1r	1c	1g	2ee	2gg
2C	.	.	.	2ee	4g
.	.	.	.	.	4a
=85	=85	=85	=85	=85	=85
1G	2r	1B	1g	2dd	4b
.	.	.	.	.	4cc
.	2g	.	.	2b	4dd
.	.	.	.	.	4ee
1F	2a	1A	1c	1cc	1ff
.	2a	.	.	.	.
=86	=86	=86	=86	=86	=86
2G	2g	2B	1r	2b	2dd
2C	2e	2c	.	4a	2ee
.	.	.	.	4g	.
2F	1f	2A	2r	1a	2cc
2D	.	2d	2A	.	[2dd
=87	=87	=87	=87	=87	=87
2E	2.e	2.G	2e	[0g	4dd]
.	.	.	.	.	4cc
2C	.	.	2.g	.	1cc
.	8d	4A	.	.	.
.	8c	.	.	.	.
1G	1d	1B	.	.	.
.	.	.	4f	.	.
.	.	.	2d	.	2b
=88	=88	=88	=88	=88	=88
0C	0c	0G	0e	0g]	0cc
==	==	==	==	==	==
*-	*-	*-	*-	*-	*-
!!!CDT: 1525/^1526/-1594/2/2
!!!OCY: Italia
!!!AGN: Mass (Parody)
!!!AST: renaissance, vocal
!!!ASW: Motet 1532 (Lupus Hellinck)
!!!PWK: Masses, Book 9
!!!RNB: Cadence finals: G,D
!!!YOR: Le Opere Complete, v. 25, p. 131
!!!YOO: Rome, Italy: Fratelli Scalera
!!!END: 1992//
!!!EED: John Miller
!!!YEC: Copyright 2000, John Miller
!!!YEN: United States of America
!!!YEM: Rights to all derivative electronic formats reserved.
!!!YEM: Refer to licensing agreement for further details.
!!!YEM: This file must be accompanied by the licensing agreement.
!!!YEM: A copy of the licensing agreement may be found at http://www.music-cog.ohio-state.edu/HumdrumDatabases/Palestrina/license.txt
!!!EMD: converted to Humdrum by Bret Aarden
